usr/share/icons/biglinux-icons-material/symbolic/devices/drive-removable-media-usb-symbolic.svg

<svg version="1.1" viewBox="0 0 16 16" xmlns="http://www.w3.org/2000/svg">
 <g transform="translate(-.04321)" fill="#dedede">
  <path d="m6.0432 2h1v1h-1zm3 0v1h-1v-1zm2 2q0.21094 0 0.39062 0.078125 0.17969 0.078125 0.3125 0.21875 0.14062 0.13281 0.21875 0.3125t0.078125 0.39062v10q0 0.21094-0.07813 0.39062-0.07813 0.17969-0.21875 0.32031-0.13281 0.13281-0.3125 0.21094-0.17968 0.078125-0.39062 0.078125h-7q-0.21094 0-0.39062-0.078125t-0.32031-0.21094q-0.13281-0.14062-0.21094-0.32031-0.078125-0.17969-0.078125-0.39062v-10q0-0.21094 0.078125-0.39062t0.21094-0.3125q0.14062-0.14062 0.32031-0.21875t0.39062-0.078125v-4h7zm-6 0h5v-3h-5zm6 1h-7v10h7z"/>
 </g>
</svg>

<svg xmlns="http://www.w3.org/2000/svg" viewBox="0 0 16 16"><path fill="#dedede" d="M6 2h1v1H6zm3 0v1H8V2zm2 2q.21 0 .39.078.18.078.313.219.14.133.219.312T12 5v10q0 .21-.078.39-.078.18-.219.32-.133.134-.312.212Q11.21 16 11 16H4q-.211 0-.39-.078t-.32-.211q-.134-.14-.212-.32Q3 15.21 3 15V5q0-.21.078-.39t.211-.313q.14-.14.32-.219T4 4V0h7zM5 4h5V1H5zm6 1H4v10h7z"/></svg>
